icons/op-ifc-16.svg

<svg width="16" height="16" viewBox="0 0 16 16" fill="none" xmlns="http://www.w3.org/2000/svg">
<path d="M10.3735 2.07826L13.7843 5.47514L9.71969 9.51182C9.86397 9.71095 10.0521 9.87451 10.2697 9.98998C10.4873 10.1055 10.7286 10.1698 10.975 10.1779C11.2214 10.1861 11.4665 10.138 11.6913 10.0373C11.9162 9.93653 12.1149 9.78584 12.2722 9.59675C12.9706 8.85268 13.698 8.13747 14.4254 7.42227L14.4261 7.42166C14.7167 7.13588 15.0077 6.8498 15.2965 6.56219C15.459 6.41824 15.5891 6.24167 15.6781 6.04407C15.7672 5.84647 15.8132 5.63233 15.8132 5.41573C15.8132 5.19914 15.7672 4.985 15.6781 4.7874C15.5891 4.5898 15.459 4.41322 15.2965 4.26928L13.6422 2.62179C13.3584 2.3391 13.0745 2.05461 12.7903 1.76976C12.363 1.34152 11.9349 0.912396 11.5047 0.487412C11.2552 0.209335 10.9084 0.0368286 10.5353 0.00524964C10.1622 -0.0263294 9.79105 0.0854106 9.49801 0.317567C8.9867 0.799717 8.50094 1.30805 8.0427 1.8405L9.35021 3.13697L10.3735 2.07826Z" fill="black"/>
<path d="M5.68354 13.9277L2.27269 10.5308L6.34838 6.47693C5.64348 5.65036 4.66568 5.54846 3.97783 6.21651C2.84097 7.3149 1.73627 8.42836 0.66375 9.55688C0.395233 9.83437 0.245203 10.2047 0.245203 10.5901C0.245203 10.9755 0.395233 11.3458 0.66375 11.6233C1.97133 12.9482 3.29783 14.2693 4.64323 15.5865C4.90074 15.8383 5.24327 15.9854 5.60387 15.999C5.96447 16.0126 6.3172 15.8918 6.5931 15.6601C6.95449 15.3437 7.28535 14.9886 7.6109 14.6393C7.75137 14.4885 7.89085 14.3388 8.03136 14.1938L6.68975 12.8577L5.68354 13.9277Z" fill="black"/>
<path d="M9.50946 6.31303L5.46189 2.28769L2.05104 5.68457L3.13683 6.70363L1.86914 7.96049C1.32134 7.50473 0.799426 7.01898 0.305808 6.50549C0.0878244 6.22977 -0.0200068 5.88347 0.00308406 5.53329C0.0261749 5.18312 0.178554 4.85384 0.430872 4.60887C1.74215 3.28409 3.06865 1.96302 4.41035 0.645687C4.69074 0.372856 5.06718 0.220109 5.45919 0.220109C5.85119 0.220109 6.22763 0.372856 6.50802 0.645687C7.60708 1.74778 8.70421 2.84984 9.7994 3.95185C9.95778 4.11609 10.0775 4.31339 10.1498 4.52942C10.2221 4.74545 10.2452 4.97481 10.2174 5.20084C10.1897 5.42687 10.1117 5.64392 9.98929 5.83623C9.86684 6.02854 9.70291 6.19164 9.50946 6.31303Z" fill="black"/>
<path d="M10.6294 13.7409L6.55911 9.69293C6.35926 9.82013 6.19141 9.9914 6.06866 10.1935C5.9459 10.3956 5.87148 10.6232 5.85114 10.8585C5.83081 11.0938 5.86511 11.3307 5.9514 11.5507C6.03768 11.7707 6.17363 11.968 6.34873 12.1274L9.45831 15.2242C9.60073 15.3846 9.77574 15.513 9.97174 15.601C10.1677 15.6889 10.3803 15.7344 10.5953 15.7344C10.8102 15.7344 11.0228 15.6889 11.2188 15.601C11.4148 15.513 11.5898 15.3846 11.7322 15.2242L13.5115 13.4522L13.5154 13.4484C14.1906 12.7816 14.8658 12.1148 15.5297 11.4423C15.7959 11.1994 15.9615 10.8663 15.9941 10.5082C16.0267 10.1501 15.9239 9.79271 15.7059 9.50608C15.2332 9.00627 14.7342 8.53192 14.2108 8.08505L12.9602 9.31359C13.1001 9.44228 13.2337 9.57605 13.3676 9.71009C13.5164 9.85909 13.6656 10.0084 13.8242 10.1515C14.0005 10.31 13.9891 10.4119 13.8242 10.5761C12.8123 11.5725 11.8061 12.5746 10.7999 13.5767L10.6294 13.7409Z" fill="black"/>
<path d="M6.25215 3.49938L9.27646 6.50562L7.95761 7.81343L7.88851 7.74207C7.73965 7.58813 7.57075 7.41349 7.38913 7.24728L6.12143 5.97909C5.93669 5.82406 5.79054 5.6285 5.69445 5.40776C5.59836 5.18702 5.55494 4.9471 5.56761 4.70684C5.58028 4.46657 5.64869 4.2325 5.76746 4.023C5.88624 3.81349 6.05212 3.63428 6.25215 3.49938Z" fill="black"/>
<path d="M8.59768 8.74875C8.41493 8.57201 8.23323 8.39627 8.05409 8.22096L6.78639 9.45515L9.79931 12.4501C9.97531 12.3252 10.1227 12.1646 10.2319 11.9789C10.341 11.7931 10.4094 11.5865 10.4325 11.3725C10.4556 11.1585 10.4329 10.9421 10.3659 10.7375C10.2989 10.5329 10.1891 10.3448 10.0438 10.1855C9.57333 9.69235 9.08178 9.21694 8.59768 8.74875Z" fill="black"/>
<path d="M3.51769 9.73253L6.52494 6.74326L7.82674 8.0171L7.64483 8.20959L5.93941 9.90803C5.78232 10.0808 5.58776 10.2157 5.37051 10.3024C5.15325 10.3891 4.91901 10.4254 4.68558 10.4085C4.45214 10.3916 4.22565 10.3219 4.02329 10.2048C3.82093 10.0877 3.648 9.92615 3.51769 9.73253Z" fill="black"/>
<path d="M9.54912 9.21179L12.5052 6.27347C12.3786 6.08667 12.2115 5.93067 12.016 5.81705C11.8206 5.70343 11.602 5.63511 11.3765 5.61716C11.1509 5.59921 10.9242 5.63209 10.7132 5.71337C10.5021 5.79465 10.3122 5.92222 10.1574 6.08663C9.76109 6.47753 9.35966 6.8786 8.96684 7.27109C8.77364 7.46412 8.58253 7.65507 8.39512 7.84171C8.36084 7.87567 8.32857 7.91159 8.29848 7.94928L9.54912 9.21179Z" fill="black"/>
</svg>

<svg xmlns="http://www.w3.org/2000/svg" width="16" height="16" viewBox="0 0 16 16"><path d="m10.373 2.078 3.411 3.397L9.72 9.512a1.622 1.622 0 0 0 2.552.085 77.475 77.475 0 0 1 2.153-2.175h.001c.291-.286.582-.572.87-.86a1.525 1.525 0 0 0 .517-1.146 1.533 1.533 0 0 0-.517-1.147l-1.654-1.647-.852-.852c-.427-.428-.855-.858-1.285-1.283A1.473 1.473 0 0 0 9.498.318c-.511.482-.997.99-1.455 1.523L9.35 3.137l1.023-1.059Zm-4.689 11.85-3.411-3.397 4.075-4.054c-.705-.827-1.682-.929-2.37-.26a108.57 108.57 0 0 0-3.314 3.34 1.483 1.483 0 0 0 0 2.066 323.626 323.626 0 0 0 3.979 3.963 1.455 1.455 0 0 0 1.95.074 14.21 14.21 0 0 0 1.018-1.021c.14-.15.28-.3.42-.445L6.69 12.858l-1.006 1.07Z"/><path d="M9.509 6.313 5.462 2.288 2.051 5.685l1.086 1.019L1.869 7.96A18.86 18.86 0 0 1 .306 6.505a1.416 1.416 0 0 1 .125-1.896A391.7 391.7 0 0 1 4.41.646a1.505 1.505 0 0 1 2.098 0C7.607 1.748 8.704 2.85 9.799 3.952a1.52 1.52 0 0 1 .418 1.249 1.509 1.509 0 0 1-.228.635 1.518 1.518 0 0 1-.48.477Zm1.12 7.428-4.07-4.048c-.2.127-.368.298-.49.501a1.526 1.526 0 0 0-.118 1.357c.087.22.223.417.398.576l3.109 3.097a1.518 1.518 0 0 0 1.761.377c.196-.088.371-.216.513-.377l1.779-1.772.004-.004c.676-.666 1.351-1.333 2.015-2.006a1.444 1.444 0 0 0 .176-1.936c-.473-.5-.972-.974-1.495-1.421L12.96 9.314c.14.128.274.262.408.396.148.149.298.298.456.442.177.158.165.26 0 .424-1.012.996-2.018 1.999-3.024 3.001l-.171.164Z"/><path d="m6.252 3.499 3.024 3.007-1.318 1.307-.069-.071c-.149-.154-.318-.329-.5-.495L6.121 5.979a1.549 1.549 0 0 1-.354-1.956 1.56 1.56 0 0 1 .485-.524Zm2.346 5.25-.544-.528-1.268 1.234 3.013 2.995a1.523 1.523 0 0 0 .567-1.712 1.533 1.533 0 0 0-.322-.553 51.468 51.468 0 0 0-1.446-1.436Zm-5.08.984 3.007-2.99 1.302 1.274-.182.193-1.706 1.698a1.559 1.559 0 0 1-1.253.501 1.552 1.552 0 0 1-1.168-.676Zm6.031-.521 2.956-2.939a1.513 1.513 0 0 0-1.792-.56 1.514 1.514 0 0 0-.556.374c-.396.391-.797.792-1.19 1.184l-.572.571c-.034.034-.066.07-.097.107l1.251 1.263Z"/></svg>
